assets/images/edit_pencil.svg

<svg width="45" height="47" viewBox="0 0 45 47" version="1.1" xmlns="http://www.w3.org/2000/svg" xmlns:xlink="http://www.w3.org/1999/xlink">
<title>edit_pencil</title>
<g id="Canvas" transform="translate(-207 282)">
<g id="edit_pencil">
<g id="Polygon">
<use xlink:href="#path0_fill" transform="matrix(0.962954 -0.269667 0.31362 0.949549 201.984 -247.671)" fill="#445C6C"/>
</g>
<g id="Polygon">
<use xlink:href="#path1_fill" transform="matrix(0.969418 -0.245417 0.289692 0.95712 205.925 -247.348)" fill="#FFFFFF"/>
</g>
<g id="Rectangle">
<use xlink:href="#path2_fill" transform="matrix(0.707107 -0.707107 0.707107 0.707107 209.519 -250.079)" fill="#445C6C"/>
</g>
<g id="Rectangle 4">
<use xlink:href="#path3_fill" transform="matrix(0.707107 -0.707107 0.707107 0.707107 235.805 -276.364)" fill="#445C6C"/>a
</g>
<g id="Line">
<use xlink:href="#path4_stroke" transform="matrix(0.707107 -0.707107 0.707107 0.707107 212 -246)" fill="#FFFFFF"/>
</g>
<g id="Line">
<use xlink:href="#path4_stroke" transform="matrix(0.707107 -0.707107 0.707107 0.707107 217 -241)" fill="#FFFFFF"/>
</g>
</g>
</g>
<defs>
<path id="path0_fill" d="M 8.04899 0L 15.0196 12.7992L 1.07836 12.7992L 8.04899 0Z"/>
<path id="path1_fill" d="M 5.54654 0L 10.35 9.35944L 0.743095 9.35944L 5.54654 0Z"/>
<path id="path2_fill" d="M 0 0L 34 0L 34 15.3063L 0 15.3063L 0 0Z"/>
<path id="path3_fill" d="M 0 0L 5.78022 0C 7.98936 0 9.78022 1.79086 9.78022 4L 9.78022 11.31C 9.78022 13.5191 7.98936 15.31 5.78022 15.31L 0 15.31L 0 0Z"/>
<path id="path4_stroke" d="M 0 0L 35.3553 0L 35.3553 -1L 0 -1L 0 0Z"/>
</defs>
</svg>

<svg width="45" height="47" viewBox="0 0 45 47" xmlns="http://www.w3.org/2000/svg" xmlns:xlink="http://www.w3.org/1999/xlink"><use xlink:href="#path0_fill" transform="matrix(.96295 -.26967 .31362 .94955 -5.016 34.329)" fill="#445C6C"/><use xlink:href="#path1_fill" transform="matrix(.96942 -.24542 .2897 .95712 -1.075 34.652)" fill="#FFF"/><use xlink:href="#path2_fill" transform="rotate(-45 39.792 12.92)" fill="#445C6C"/><g transform="translate(-207 282)"><use xlink:href="#path3_fill" transform="rotate(-45 -215.698 -422.824)" fill="#445C6C"/>a</g><use xlink:href="#path4_stroke" transform="rotate(-45 45.956 11.964)" fill="#FFF"/><use xlink:href="#path4_stroke" transform="rotate(-45 54.491 8.429)" fill="#FFF"/><defs><path id="path0_fill" d="M8.049 0l6.97 12.8H1.08L8.048 0z"/><path id="path1_fill" d="M5.547 0l4.803 9.36H.743L5.547 0z"/><path id="path2_fill" d="M0 0h34v15.306H0V0z"/><path id="path3_fill" d="M0 0h5.78a4 4 0 014 4v7.31a4 4 0 01-4 4H0V0z"/><path id="path4_stroke" d="M0 0h35.355v-1H0v1z"/></defs></svg>
